src/images/icons/soc-1-dribbble.svg

<svg width="40" height="40" viewBox="0 0 40 40" fill="none" xmlns="http://www.w3.org/2000/svg">
<g clip-path="url(#clip0)">
<path fill-rule="evenodd" clip-rule="evenodd" d="M36.3257 31.5242C38.6639 28.184 40 24.2591 40 20.0002C40 9.72884 32.2338 1.21109 22.2965 0.125499H22.2129C21.9624 0.125499 21.6284 0.0419922 21.2944 0.0419922C21.2109 0.0419922 21.2109 0.0419922 21.1273 0.0419922C20.7098 0.0419922 20.3758 0.0419922 20.0418 0.0419922H19.9582C19.6242 0.0419922 19.2067 0.0419922 18.8727 0.0419922C18.7891 0.0419922 18.6221 0.0419922 18.5386 0.0419922C18.2881 0.0419922 18.0376 0.0419922 17.7871 0.125499C17.7036 0.125499 17.62 0.125499 17.5365 0.125499C17.2025 0.125499 16.952 0.209007 16.618 0.292514C16.5344 0.292514 16.5344 0.292514 16.4509 0.292514C16.2004 0.376021 15.8664 0.459529 15.5324 0.543036C6.68059 2.54721 0 10.4804 0 20.0002C0 31.0232 8.93528 39.9585 20.0418 39.9585C20.2923 39.9585 20.4593 39.9585 20.7098 39.9585C20.7933 39.9585 20.9603 39.9585 21.0438 39.9585C21.3779 39.9585 21.7119 39.875 21.9624 39.875C24.8852 39.541 27.7244 38.7059 30.1461 37.2027C30.2296 37.1192 30.3132 37.1192 30.4802 37.0357C30.6472 36.9522 30.8142 36.7852 30.9812 36.7017C31.1482 36.6182 31.3152 36.4512 31.4823 36.3677C31.4823 36.2842 31.5658 36.2007 31.6493 36.2007C33.4029 35.0316 34.8225 33.5284 35.9916 31.8583L36.3257 31.5242ZM29.6451 35.1151C29.4781 35.1986 29.3946 35.2821 29.2276 35.3656C28.977 35.4491 28.81 35.5326 28.5595 35.6161C28.5595 35.6161 28.476 35.6161 28.476 35.6996C26.2213 36.9522 23.7161 37.7038 20.9603 37.8708V27.5159C25.7203 27.6829 29.9791 29.186 33.4029 31.6913C32.4008 32.9439 31.2317 33.946 29.8956 34.8645C29.8121 35.0316 29.7286 35.0316 29.6451 35.1151ZM2.08768 21.1693H18.9562V25.4282C13.8622 25.6787 9.01879 27.3489 5.26096 30.1881C3.4238 27.6829 2.3382 24.5096 2.08768 21.1693ZM5.26096 9.72884C9.01879 12.5681 13.8622 14.3217 18.9562 14.4052V19.1652H2.08768C2.2547 15.6579 3.34029 12.4846 5.26096 9.72884ZM18.1211 2.12967C18.2881 2.12967 18.5386 2.04617 18.7891 2.04617C18.8727 2.04617 18.8727 2.04617 18.9562 2.04617V12.4846C14.3633 12.3176 10.0209 10.7309 6.59708 8.22571C9.51983 4.80191 13.6117 2.63072 18.0376 2.12967H18.1211ZM37.9123 19.1652H21.0438V14.4888C26.1378 14.4052 30.9812 12.6516 34.8225 9.72884C36.6597 12.4846 37.7453 15.6579 37.9123 19.1652ZM21.0438 2.04617C25.8038 2.29669 30.2296 4.55139 33.4029 8.22571C29.9791 10.7309 25.7203 12.3176 21.0438 12.4846V2.04617ZM18.9562 37.8708C14.2797 37.5368 9.85386 35.3656 6.68058 31.7748C10.0209 29.2696 14.3633 27.7664 18.9562 27.5994V37.8708ZM21.0438 25.4282V21.1693H37.9123C37.6618 24.4261 36.5762 27.5994 34.8225 30.1046C30.9812 27.2654 26.1378 25.6787 21.0438 25.4282Z" fill="#003067"/>
</g>
<defs>
<clipPath id="clip0">
<rect width="40" height="40" fill="white"/>
</clipPath>
</defs>
</svg>

<svg xmlns="http://www.w3.org/2000/svg" width="40" height="40" fill="none" viewBox="0 0 40 40">
	<g clip-path="url(#soc-1-dribbble-a)">
		<path fill="#003067" fill-rule="evenodd" d="M36.326 31.524C38.664 28.184 40 24.26 40 20 40 9.73 32.234 1.211 22.297.125h-.084c-.25 0-.585-.083-.919-.083H18.54c-.25 0-.501 0-.752.083h-.25c-.334 0-.585.084-.919.168h-.167a13.7 13.7 0 0 1-.919.25C6.681 2.547 0 10.48 0 20 0 31.023 8.935 39.96 20.042 39.96h1.002c.334 0 .668-.084.918-.084 2.923-.334 5.762-1.17 8.184-2.672.084-.084.167-.084.334-.167.167-.084.334-.25.501-.334.167-.084.334-.25.501-.334a.18.18 0 0 1 .167-.167c1.754-1.17 3.173-2.673 4.343-4.343l.334-.334zm-6.68 3.591c-.168.084-.251.167-.418.25-.251.084-.418.168-.669.251 0 0-.083 0-.083.084-2.255 1.252-4.76 2.004-7.516 2.17V27.517c4.76.167 9.02 1.67 12.443 4.175-1.002 1.253-2.171 2.255-3.507 3.174-.084.167-.167.167-.25.25zM2.087 21.17h16.868v4.26c-5.094.25-9.937 1.92-13.695 4.76-1.837-2.506-2.923-5.68-3.173-9.02zM5.26 9.73c3.758 2.84 8.601 4.593 13.695 4.676v4.76H2.088c.167-3.507 1.252-6.68 3.173-9.436zm12.86-7.6c.167 0 .418-.083.668-.083h.167v10.439c-4.593-.167-8.935-1.754-12.359-4.26a17.661 17.661 0 0 1 11.44-6.095h.084zm19.791 17.036H21.044V14.49a23.481 23.481 0 0 0 13.778-4.76c1.838 2.756 2.923 5.929 3.09 9.436zM21.044 2.046c4.76.25 9.186 2.505 12.359 6.18a22.23 22.23 0 0 1-12.36 4.259V2.046zm-2.088 35.825c-4.676-.334-9.102-2.505-12.275-6.096 3.34-2.505 7.682-4.009 12.275-4.176v10.272zm2.088-12.443V21.17h16.868c-.25 3.257-1.336 6.43-3.09 8.936-3.84-2.84-8.684-4.426-13.778-4.677z" clip-rule="evenodd"/>
	</g>
	<defs>
		<clipPath id="soc-1-dribbble-a">
			<path fill="#fff" d="M0 0h40v40H0z"/>
		</clipPath>
	</defs>
</svg>
